svg/300/sharp/pivot_table_chart-fill.svg

<svg xmlns="http://www.w3.org/2000/svg" width="48" height="48" viewBox="0 -960 960 960"><path d="M393.078-647.693v-172.306h426.921v172.306H393.078ZM140.001-140.001v-426.921h172.306v426.921H140.001Zm0-507.692v-172.306h172.306v172.306H140.001Zm366.537 547.692L364.462-241.693l142.076-141.691 32.614 32.614-86.769 86.385h243.232v-243.232l-86.385 86.769-32.614-32.999 141.691-141.691 141.692 141.691-32.615 32.999-86.385-86.769v288.616H452.383l86.769 86.385-32.614 32.615Z"/></svg>

<svg xmlns="http://www.w3.org/2000/svg" width="48" height="48" viewBox="0 -960 960 960"><path d="M393.08-647.69V-820H820v172.31H393.08ZM140-140v-426.92h172.31V-140H140Zm0-507.69V-820h172.31v172.31H140ZM506.54-100 364.46-241.69l142.08-141.69 32.61 32.61-86.77 86.39h243.24v-243.24l-86.39 86.77-32.61-33 141.69-141.69L860-453.85l-32.62 33L741-507.62V-219H452.38l86.77 86.38L506.54-100Z"/></svg>
